src/assets/icons/shapes,simple,filled-star8.svg

<svg width="48" height="48" viewBox="0 0 48 48" fill="none" xmlns="http://www.w3.org/2000/svg">
<rect opacity="0.2" x="5" y="5" width="38" height="38" rx="4" fill="black"/>
<path d="M22.1414 12.6766C22.928 10.6973 23.3213 9.70764 24 9.70764C24.6787 9.70764 25.072 10.6973 25.8586 12.6766L26.4849 14.2525C26.8424 15.1521 27.0211 15.6018 27.4116 15.7636C27.8022 15.9253 28.2466 15.7337 29.1354 15.3504L30.6926 14.6789C32.6484 13.8356 33.6263 13.4139 34.1062 13.8938C34.5861 14.3737 34.1644 15.3516 33.3211 17.3074L32.6496 18.8646C32.2663 19.7534 32.0747 20.1978 32.2364 20.5884C32.3982 20.9789 32.8479 21.1576 33.7475 21.5151L35.3234 22.1414C37.3027 22.928 38.2924 23.3213 38.2924 24C38.2924 24.6787 37.3027 25.072 35.3234 25.8586L33.7475 26.4849C32.8479 26.8424 32.3982 27.0211 32.2364 27.4116C32.0747 27.8022 32.2663 28.2466 32.6496 29.1354L33.3211 30.6926C34.1644 32.6484 34.5861 33.6263 34.1062 34.1062C33.6263 34.5861 32.6484 34.1644 30.6926 33.3211L29.1354 32.6496C28.2466 32.2663 27.8022 32.0747 27.4116 32.2364C27.0211 32.3982 26.8424 32.8479 26.4849 33.7475L25.8586 35.3234C25.072 37.3027 24.6787 38.2924 24 38.2924C23.3213 38.2924 22.928 37.3027 22.1414 35.3234L21.5151 33.7475C21.1576 32.8479 20.9789 32.3982 20.5884 32.2364C20.1978 32.0747 19.7534 32.2663 18.8646 32.6496L17.3074 33.3211C15.3516 34.1644 14.3737 34.5861 13.8938 34.1062C13.4139 33.6263 13.8356 32.6484 14.6789 30.6926L15.3504 29.1354C15.7337 28.2466 15.9253 27.8022 15.7636 27.4116C15.6018 27.0211 15.1521 26.8424 14.2525 26.4849L12.6766 25.8586C10.6973 25.072 9.70764 24.6787 9.70764 24C9.70764 23.3213 10.6973 22.928 12.6766 22.1414L14.2525 21.5151C15.1521 21.1576 15.6018 20.9789 15.7636 20.5884C15.9253 20.1978 15.7337 19.7534 15.3504 18.8646L14.6789 17.3074C13.8356 15.3516 13.4139 14.3737 13.8938 13.8938C14.3737 13.4139 15.3516 13.8356 17.3074 14.6789L18.8646 15.3504C19.7534 15.7337 20.1978 15.9253 20.5884 15.7636C20.9789 15.6018 21.1576 15.1521 21.5151 14.2525L22.1414 12.6766Z" fill="black"/>
</svg>

<svg xmlns="http://www.w3.org/2000/svg" width="48" height="48" fill="none" viewBox="0 0 48 48">
  <rect width="38" height="38" x="5" y="5" fill="#000" opacity=".2" rx="4"/>
  <path fill="#000" d="M22.141 12.677c.787-1.98 1.18-2.97 1.859-2.97s1.072.99 1.859 2.97l.626 1.575c.357.9.536 1.35.927 1.512.39.161.835-.03 1.723-.414l1.558-.671c1.955-.843 2.933-1.265 3.413-.785.48.48.058 1.458-.785 3.413l-.671 1.558c-.384.888-.575 1.333-.414 1.723.162.39.612.57 1.512.927l1.575.626c1.98.787 2.97 1.18 2.97 1.859s-.99 1.072-2.97 1.859l-1.575.626c-.9.357-1.35.536-1.512.927-.161.39.03.835.414 1.723l.671 1.558c.843 1.955 1.265 2.933.785 3.413-.48.48-1.458.058-3.413-.785l-1.558-.671c-.888-.384-1.333-.575-1.723-.414-.39.162-.57.612-.927 1.512l-.626 1.575c-.787 1.98-1.18 2.97-1.859 2.97s-1.072-.99-1.859-2.97l-.626-1.575c-.357-.9-.536-1.35-.927-1.512-.39-.161-.835.03-1.723.414l-1.558.671c-1.955.843-2.933 1.265-3.413.785-.48-.48-.058-1.458.785-3.413l.671-1.558c.384-.888.575-1.333.414-1.723-.162-.39-.612-.57-1.511-.927l-1.576-.626c-1.98-.787-2.97-1.18-2.97-1.859s.99-1.072 2.97-1.859l1.575-.626c.9-.357 1.35-.536 1.512-.927.161-.39-.03-.835-.414-1.723l-.671-1.558c-.843-1.955-1.265-2.933-.785-3.413.48-.48 1.458-.058 3.413.785l1.558.671c.888.384 1.333.575 1.723.414.39-.162.57-.612.927-1.511l.626-1.576z"/>
</svg>
